assets/6_spades.svg

<svg width="822" height="1122" fill="none" xmlns="http://www.w3.org/2000/svg"><rect width="822" height="1122" rx="50" fill="#F1F7EE"/><path d="M224.069 1063.6v17c0 .93-.467 1.63-1.4 2.1-2.867 1.53-6.433 2.83-10.7 3.9-4.2 1.07-8.667 1.6-13.4 1.6-4.667 0-9.133-.9-13.4-2.7-4.267-1.8-7.667-4.33-10.2-7.6-4.867-6.4-7.3-14.73-7.3-25 0-6.27.933-11.77 2.8-16.5 1.933-4.8 4.467-8.53 7.6-11.2 6.133-5.2 13.167-7.8 21.1-7.8 8 0 14.867 1.77 20.6 5.3.933.53 1.4 1.27 1.4 2.2v12.5c0 1-.5 1.5-1.5 1.5h-5.7c-1 0-1.467-.5-1.4-1.5l.3-6.7c-4.2-3-8.767-4.5-13.7-4.5-4.867 0-8.8 1.23-11.8 3.7-2.933 2.4-4.967 5.4-6.1 9-1.067 3.53-1.6 7.83-1.6 12.9 0 5 .6 9.5 1.8 13.5 1.267 4 3.5 7.33 6.7 10 3.267 2.67 7.467 4 12.6 4 5.2 0 9.533-1.17 13-3.5v-12.2h-6.4c-1 0-1.5-.5-1.5-1.5v-5c0-1 .5-1.5 1.5-1.5h22c1 0 1.5.5 1.5 1.5v5c0 1-.5 1.5-1.5 1.5h-5.3Zm57.878 15.5h4.4c1 0 1.5.5 1.5 1.5v4.9c0 1-.5 1.5-1.5 1.5h-11.2c-.8 0-1.3-.5-1.5-1.5l-.9-5.6c-4.266 5.53-9.866 8.3-16.8 8.3-10.8 0-16.2-5.67-16.2-17v-25.5h-5.3c-1 0-1.5-.5-1.5-1.5v-5.2c0-1 .5-1.5 1.5-1.5h15c1 0 1.5.5 1.5 1.5v29.2c0 4 .5 6.87 1.5 8.6 1.067 1.67 3.267 2.5 6.6 2.5 3.4 0 6.2-1 8.4-3s3.3-4.27 3.3-6.8v-23.8h-6.3c-1 0-1.5-.5-1.5-1.5v-5.2c0-1 .5-1.5 1.5-1.5h16c1 0 1.5.5 1.5 1.5v40.1Zm25.364-40.2 11.7 36.4 10.4-29.6h-5.1c-1 0-1.5-.5-1.5-1.5v-5.2c0-1 .5-1.5 1.5-1.5h14.6c.8 0 1.333.23 1.6.7.266.47.4.9.4 1.3 0 .33-.067.67-.2 1l-21.4 55.9c-1 2.53-1.867 4.47-2.6 5.8-.667 1.4-1.634 2.87-2.9 4.4-2.467 2.93-6.1 4.4-10.9 4.4-4.8 0-8.734-.73-11.8-2.2-.534-.27-.8-.6-.8-1s.033-.7.1-.9l1.7-4.9c.266-.87.9-1.17 1.9-.9 3.2 1.07 5.8 1.6 7.8 1.6 2.066 0 3.633-.53 4.7-1.6 1.133-1 2.3-3.13 3.5-6.4l2.5-6.6-15.2-42.4h-5c-1 0-1.5-.5-1.5-1.5v-5.2c0-1 .5-1.5 1.5-1.5h13.1c1 0 1.633.47 1.9 1.4Zm40.955 12.9c0-4.4 1.7-8.07 5.1-11 3.4-2.93 7.7-4.4 12.9-4.4s9.7.6 13.5 1.8c.933.27 1.4.87 1.4 1.8v10.6c0 1-.5 1.5-1.5 1.5h-5.8c-1.067 0-1.5-.5-1.3-1.5l.5-5.1c-2-1.07-4.2-1.6-6.6-1.6-5.333 0-8 1.87-8 5.6 0 1.93.867 3.47 2.6 4.6 1.733 1.13 3.833 2.07 6.3 2.8a81.61 81.61 0 0 1 7.4 2.4c2.533.87 4.667 2.4 6.4 4.6 1.733 2.13 2.6 4.87 2.6 8.2 0 5.07-1.767 9.03-5.3 11.9-3.533 2.8-8.5 4.2-14.9 4.2-4.467 0-9.167-.67-14.1-2-.867-.27-1.3-.9-1.3-1.9v-10.6c0-1 .5-1.5 1.5-1.5h5.8c1 0 1.467.5 1.4 1.5l-.3 5.2c1.8 1.33 4.367 2 7.7 2 5.933 0 8.9-2.1 8.9-6.3 0-2.13-.867-3.8-2.6-5-1.667-1.27-3.733-2.23-6.2-2.9a184.3 184.3 0 0 1-7.3-2.2c-2.467-.87-4.567-2.33-6.3-4.4-1.667-2.13-2.5-4.9-2.5-8.3Zm108.06 27.3h4.3c1 0 1.5.5 1.5 1.5v4.9c0 1-.5 1.5-1.5 1.5h-11.3c-.866 0-1.366-.5-1.5-1.5l-.8-5.9c-3.4 5.73-8.833 8.6-16.3 8.6-6.533 0-11.566-2.03-15.1-6.1-3.533-4.13-5.3-10.5-5.3-19.1 0-8.67 2.034-15.27 6.1-19.8 4.134-4.53 9.434-6.8 15.9-6.8 2.934 0 5.534.57 7.8 1.7 2.267 1.07 3.934 2.37 5 3.9v-21.3h-5.3c-1 0-1.5-.5-1.5-1.5v-5.3c0-1 .5-1.5 1.5-1.5h15c1 0 1.5.5 1.5 1.5v65.2Zm-11.2-10.9v-17.6c-.866-1.33-2.4-2.57-4.6-3.7-2.133-1.13-4.3-1.7-6.5-1.7-8.266 0-12.4 5.6-12.4 16.8 0 8.6 1.867 13.97 5.6 16.1 1.6.93 3.8 1.4 6.6 1.4s5.367-1.03 7.7-3.1c2.4-2.07 3.6-4.8 3.6-8.2Zm40.001-22.1c1.133-2.67 2.967-4.93 5.5-6.8 2.533-1.93 5.3-2.9 8.3-2.9 3 0 5.3.27 6.9.8.8.27 1.2.87 1.2 1.8v13.5c0 1-.5 1.5-1.5 1.5h-6.5c-1 0-1.467-.5-1.4-1.5l.4-5.8c-.333-.07-.9-.1-1.7-.1-3.067 0-5.6 1.27-7.6 3.8-2 2.47-3 5.8-3 10v18.7h11c1 0 1.5.5 1.5 1.5v4.9c0 1-.5 1.5-1.5 1.5h-27.5c-1 0-1.5-.5-1.5-1.5v-4.9c0-1 .5-1.5 1.5-1.5h5.3v-33.4h-5.4c-1 0-1.5-.5-1.5-1.5v-5.2c0-1 .5-1.5 1.5-1.5h13.2c.933 0 1.5.5 1.7 1.5l1.1 7.1Zm45.717 33h6.3c1 0 1.5.5 1.5 1.5v4.9c0 1-.5 1.5-1.5 1.5h-23.8c-1 0-1.5-.5-1.5-1.5v-4.9c0-1 .5-1.5 1.5-1.5h6.3v-33.4h-5.4c-1 0-1.5-.5-1.5-1.5v-5.2c0-1 .5-1.5 1.5-1.5h15.1c1 0 1.5.5 1.5 1.5v40.1Zm-12.1-50.5c-1.267-1.33-1.9-3.03-1.9-5.1s.633-3.77 1.9-5.1c1.333-1.4 3.067-2.1 5.2-2.1 2.2 0 3.933.7 5.2 2.1 1.333 1.33 2 3.03 2 5.1s-.667 3.77-2 5.1c-1.333 1.33-3.1 2-5.3 2-2.133 0-3.833-.67-5.1-2Zm23.395 15.7v-5.3c0-1 .5-1.5 1.5-1.5h13.6c.866 0 1.4.5 1.6 1.5l.9 5.8c3.733-5.6 9.066-8.4 16-8.4 10.333 0 15.5 5.67 15.5 17v25.7h5.8c1 0 1.5.5 1.5 1.5v4.9c0 1-.5 1.5-1.5 1.5h-21.8c-1 0-1.5-.5-1.5-1.5v-4.9c0-1 .5-1.5 1.5-1.5h4.8v-20.7c0-4.2-.534-7.27-1.6-9.2-1.067-1.93-3.267-2.9-6.6-2.9-3.334 0-6.1 1-8.3 3-2.2 2-3.3 4.27-3.3 6.8v23h6.2c1 0 1.5.5 1.5 1.5v4.9c0 1-.5 1.5-1.5 1.5h-22.7c-1 0-1.5-.5-1.5-1.5v-4.9c0-1 .5-1.5 1.5-1.5h5.3v-33.4h-5.4c-1 0-1.5-.47-1.5-1.4Zm78.451-30.4v39.9h5.1l15.5-15.2c.734-.73 1.6-1.1 2.6-1.1h7.8c1 0 1.5.5 1.5 1.5v5.2c0 1-.5 1.5-1.5 1.5h-6.1l-11 10.7 13.7 22.7h5.9c1 0 1.5.5 1.5 1.5v4.9c0 1-.5 1.5-1.5 1.5h-12.9c-.933 0-1.7-.43-2.3-1.3l-15-24.2h-3.3v17.6h5.3c1 0 1.5.5 1.5 1.5v4.9c0 1-.5 1.5-1.5 1.5h-21.8c-1 0-1.5-.5-1.5-1.5v-4.9c0-1 .5-1.5 1.5-1.5h5.3v-58.6h-5.4c-1 0-1.5-.5-1.5-1.5v-5.1c0-1 .5-1.5 1.5-1.5h15.1c1 0 1.5.5 1.5 1.5ZM141.715 71.2c31.4 0 48.4 14.9 51 44.7.2 2.2-.1 3.7-.9 4.5-.6.8-2 1.2-4.2 1.2h-16.5c-2.4 0-4-.4-4.8-1.2-.8-.8-1.4-2.3-1.8-4.5-2-13-10.3-19.5-24.9-19.5-29.2 0-44.3 22.1-45.3 66.3 10.6-14.8 25.7-22.2 45.3-22.2 19.6 0 34.4 5.5 44.4 16.5 10.2 10.8 15.3 26 15.3 45.6s-6.1 36-18.3 49.2c-12 13.2-28.4 19.8-49.2 19.8-47.4 0-71.1-30.7-71.1-92.1 0-36.4 7-63.5 21-81.3 14.2-18 34.2-27 60-27Zm-10.8 95.4c-8.6 0-16.2 2-22.8 6-8.8 5.4-13.2 14.8-13.2 28.2 0 13.4 2.7 24.5 8.1 33.3 5.6 8.6 14.9 12.9 27.9 12.9 23.6 0 35.4-13.4 35.4-40.2 0-26.8-11.8-40.2-35.4-40.2Z" fill="#000"/><path d="M262.605 655.873a94.209 94.209 0 0 0 30.565 20.375 94.417 94.417 0 0 0 72.115 0 94.187 94.187 0 0 0 30.565-20.375l18.155-18.105 18.154 18.105c17.669 17.622 41.634 27.521 66.622 27.521 24.989 0 48.954-9.899 66.623-27.521A93.834 93.834 0 0 0 593 589.431c0-24.92-9.927-48.82-27.596-66.442l-18.154-18.105-119.122-118.799c-7.806-7.785-20.44-7.785-28.246 0L280.759 504.884l-18.154 18.105a93.929 93.929 0 0 0-20.43 30.482 93.717 93.717 0 0 0 0 71.92 93.929 93.929 0 0 0 20.43 30.482ZM410.479 686.897l-60.03 59.557c-3.169 3.144-.942 8.549 3.522 8.549H474.03c4.464 0 6.69-5.405 3.521-8.549l-60.029-59.557a5 5 0 0 0-7.043 0Z" fill="#231F20"/><mask id="a" style="mask-type:alpha" maskUnits="userSpaceOnUse" x="235" y="379" width="179" height="376"><path fill="#D9D9D9" d="M235 379h179v376H235z"/></mask><g mask="url(#a)" fill="#393335"><path d="m410.479 686.897-60.03 59.557c-3.169 3.144-.942 8.549 3.522 8.549H474.03c4.464 0 6.69-5.405 3.521-8.549l-60.029-59.557a5 5 0 0 0-7.043 0ZM262.605 655.873a94.209 94.209 0 0 0 30.565 20.375 94.417 94.417 0 0 0 72.115 0 94.187 94.187 0 0 0 30.565-20.375l18.155-18.105 18.154 18.105c17.669 17.622 41.634 27.521 66.622 27.521 24.989 0 48.954-9.899 66.623-27.521A93.834 93.834 0 0 0 593 589.431c0-24.92-9.927-48.82-27.596-66.442l-18.154-18.105-119.122-118.799c-7.806-7.785-20.44-7.785-28.246 0L280.759 504.884l-18.154 18.105a93.929 93.929 0 0 0-20.43 30.482 93.717 93.717 0 0 0 0 71.92 93.929 93.929 0 0 0 20.43 30.482Z"/></g><path d="M90.711 402.294a26.326 26.326 0 0 0 18.61 7.69c3.456 0 6.878-.679 10.072-1.998a26.32 26.32 0 0 0 8.537-5.692l5.071-5.057 5.071 5.057a26.353 26.353 0 0 0 18.61 7.688c6.98 0 13.674-2.765 18.61-7.688A26.212 26.212 0 0 0 183 383.735a26.212 26.212 0 0 0-7.708-18.559l-5.071-5.057-33.689-33.598a5 5 0 0 0-7.061 0l-33.689 33.598-5.071 5.057a26.24 26.24 0 0 0-5.707 8.514 26.182 26.182 0 0 0 5.707 28.604ZM131.592 411.382l-15.303 15.183c-1.268 1.257-.377 3.419 1.408 3.419h30.607c1.785 0 2.676-2.162 1.408-3.419l-15.303-15.183a1.999 1.999 0 0 0-2.817 0Z" fill="#231F20"/><mask id="b" style="mask-type:alpha" maskUnits="userSpaceOnUse" x="83" y="324" width="50" height="106"><path fill="#D9D9D9" d="M83 324.955h50v105.028H83z"/></mask><g mask="url(#b)" fill="#393335"><path d="m131.592 411.382-15.303 15.183c-1.268 1.257-.377 3.419 1.408 3.419h30.607c1.785 0 2.676-2.162 1.408-3.419l-15.303-15.183a1.999 1.999 0 0 0-2.817 0ZM90.711 402.294a26.326 26.326 0 0 0 18.61 7.69c3.456 0 6.878-.679 10.072-1.998a26.32 26.32 0 0 0 8.537-5.692l5.071-5.057 5.071 5.057a26.353 26.353 0 0 0 18.61 7.688c6.98 0 13.674-2.765 18.61-7.688A26.212 26.212 0 0 0 183 383.735a26.212 26.212 0 0 0-7.708-18.559l-5.071-5.057-33.689-33.598a5 5 0 0 0-7.061 0l-33.689 33.598-5.071 5.057a26.24 26.24 0 0 0-5.707 8.514 26.182 26.182 0 0 0 5.707 28.604Z"/></g></svg>

<svg width="822" height="1122" viewBox="0 0 822 1122" fill="none" xmlns="http://www.w3.org/2000/svg">
<rect width="822" height="1122" rx="50" fill="#F1F7EE"/>
<path d="M224.069 1063.6V1080.6C224.069 1081.53 223.602 1082.23 222.669 1082.7C219.802 1084.23 216.236 1085.53 211.969 1086.6C207.769 1087.67 203.302 1088.2 198.569 1088.2C193.902 1088.2 189.436 1087.3 185.169 1085.5C180.902 1083.7 177.502 1081.17 174.969 1077.9C170.102 1071.5 167.669 1063.17 167.669 1052.9C167.669 1046.63 168.602 1041.13 170.469 1036.4C172.402 1031.6 174.936 1027.87 178.069 1025.2C184.202 1020 191.236 1017.4 199.169 1017.4C207.169 1017.4 214.036 1019.17 219.769 1022.7C220.702 1023.23 221.169 1023.97 221.169 1024.9V1037.4C221.169 1038.4 220.669 1038.9 219.669 1038.9H213.969C212.969 1038.9 212.502 1038.4 212.569 1037.4L212.869 1030.7C208.669 1027.7 204.102 1026.2 199.169 1026.2C194.302 1026.2 190.369 1027.43 187.369 1029.9C184.436 1032.3 182.402 1035.3 181.269 1038.9C180.202 1042.43 179.669 1046.73 179.669 1051.8C179.669 1056.8 180.269 1061.3 181.469 1065.3C182.736 1069.3 184.969 1072.63 188.169 1075.3C191.436 1077.97 195.636 1079.3 200.769 1079.3C205.969 1079.3 210.302 1078.13 213.769 1075.8V1063.6H207.369C206.369 1063.6 205.869 1063.1 205.869 1062.1V1057.1C205.869 1056.1 206.369 1055.6 207.369 1055.6H229.369C230.369 1055.6 230.869 1056.1 230.869 1057.1V1062.1C230.869 1063.1 230.369 1063.6 229.369 1063.6H224.069ZM281.947 1079.1H286.347C287.347 1079.1 287.847 1079.6 287.847 1080.6V1085.5C287.847 1086.5 287.347 1087 286.347 1087H275.147C274.347 1087 273.847 1086.5 273.647 1085.5L272.747 1079.9C268.481 1085.43 262.881 1088.2 255.947 1088.2C245.147 1088.2 239.747 1082.53 239.747 1071.2V1045.7H234.447C233.447 1045.7 232.947 1045.2 232.947 1044.2V1039C232.947 1038 233.447 1037.5 234.447 1037.5H249.447C250.447 1037.5 250.947 1038 250.947 1039V1068.2C250.947 1072.2 251.447 1075.07 252.447 1076.8C253.514 1078.47 255.714 1079.3 259.047 1079.3C262.447 1079.3 265.247 1078.3 267.447 1076.3C269.647 1074.3 270.747 1072.03 270.747 1069.5V1045.7H264.447C263.447 1045.7 262.947 1045.2 262.947 1044.2V1039C262.947 1038 263.447 1037.5 264.447 1037.5H280.447C281.447 1037.5 281.947 1038 281.947 1039V1079.1ZM307.311 1038.9L319.011 1075.3L329.411 1045.7H324.311C323.311 1045.7 322.811 1045.2 322.811 1044.2V1039C322.811 1038 323.311 1037.5 324.311 1037.5H338.911C339.711 1037.5 340.244 1037.73 340.511 1038.2C340.777 1038.67 340.911 1039.1 340.911 1039.5C340.911 1039.83 340.844 1040.17 340.711 1040.5L319.311 1096.4C318.311 1098.93 317.444 1100.87 316.711 1102.2C316.044 1103.6 315.077 1105.07 313.811 1106.6C311.344 1109.53 307.711 1111 302.911 1111C298.111 1111 294.177 1110.27 291.111 1108.8C290.577 1108.53 290.311 1108.2 290.311 1107.8C290.311 1107.4 290.344 1107.1 290.411 1106.9L292.111 1102C292.377 1101.13 293.011 1100.83 294.011 1101.1C297.211 1102.17 299.811 1102.7 301.811 1102.7C303.877 1102.7 305.444 1102.17 306.511 1101.1C307.644 1100.1 308.811 1097.97 310.011 1094.7L312.511 1088.1L297.311 1045.7H292.311C291.311 1045.7 290.811 1045.2 290.811 1044.2V1039C290.811 1038 291.311 1037.5 292.311 1037.5H305.411C306.411 1037.5 307.044 1037.97 307.311 1038.9ZM348.266 1051.8C348.266 1047.4 349.966 1043.73 353.366 1040.8C356.766 1037.87 361.066 1036.4 366.266 1036.4C371.466 1036.4 375.966 1037 379.766 1038.2C380.699 1038.47 381.166 1039.07 381.166 1040V1050.6C381.166 1051.6 380.666 1052.1 379.666 1052.1H373.866C372.799 1052.1 372.366 1051.6 372.566 1050.6L373.066 1045.5C371.066 1044.43 368.866 1043.9 366.466 1043.9C361.133 1043.9 358.466 1045.77 358.466 1049.5C358.466 1051.43 359.333 1052.97 361.066 1054.1C362.799 1055.23 364.899 1056.17 367.366 1056.9C369.833 1057.57 372.299 1058.37 374.766 1059.3C377.299 1060.17 379.433 1061.7 381.166 1063.9C382.899 1066.03 383.766 1068.77 383.766 1072.1C383.766 1077.17 381.999 1081.13 378.466 1084C374.933 1086.8 369.966 1088.2 363.566 1088.2C359.099 1088.2 354.399 1087.53 349.466 1086.2C348.599 1085.93 348.166 1085.3 348.166 1084.3V1073.7C348.166 1072.7 348.666 1072.2 349.666 1072.2H355.466C356.466 1072.2 356.933 1072.7 356.866 1073.7L356.566 1078.9C358.366 1080.23 360.933 1080.9 364.266 1080.9C370.199 1080.9 373.166 1078.8 373.166 1074.6C373.166 1072.47 372.299 1070.8 370.566 1069.6C368.899 1068.33 366.833 1067.37 364.366 1066.7C361.966 1066.03 359.533 1065.3 357.066 1064.5C354.599 1063.63 352.499 1062.17 350.766 1060.1C349.099 1057.97 348.266 1055.2 348.266 1051.8ZM456.326 1079.1H460.626C461.626 1079.1 462.126 1079.6 462.126 1080.6V1085.5C462.126 1086.5 461.626 1087 460.626 1087H449.326C448.46 1087 447.96 1086.5 447.826 1085.5L447.026 1079.6C443.626 1085.33 438.193 1088.2 430.726 1088.2C424.193 1088.2 419.16 1086.17 415.626 1082.1C412.093 1077.97 410.326 1071.6 410.326 1063C410.326 1054.33 412.36 1047.73 416.426 1043.2C420.56 1038.67 425.86 1036.4 432.326 1036.4C435.26 1036.4 437.86 1036.97 440.126 1038.1C442.393 1039.17 444.06 1040.47 445.126 1042V1020.7H439.826C438.826 1020.7 438.326 1020.2 438.326 1019.2V1013.9C438.326 1012.9 438.826 1012.4 439.826 1012.4H454.826C455.826 1012.4 456.326 1012.9 456.326 1013.9V1079.1ZM445.126 1068.2V1050.6C444.26 1049.27 442.726 1048.03 440.526 1046.9C438.393 1045.77 436.226 1045.2 434.026 1045.2C425.76 1045.2 421.626 1050.8 421.626 1062C421.626 1070.6 423.493 1075.97 427.226 1078.1C428.826 1079.03 431.026 1079.5 433.826 1079.5C436.626 1079.5 439.193 1078.47 441.526 1076.4C443.926 1074.33 445.126 1071.6 445.126 1068.2ZM485.127 1046.1C486.26 1043.43 488.094 1041.17 490.627 1039.3C493.16 1037.37 495.927 1036.4 498.927 1036.4C501.927 1036.4 504.227 1036.67 505.827 1037.2C506.627 1037.47 507.027 1038.07 507.027 1039V1052.5C507.027 1053.5 506.527 1054 505.527 1054H499.027C498.027 1054 497.56 1053.5 497.627 1052.5L498.027 1046.7C497.694 1046.63 497.127 1046.6 496.327 1046.6C493.26 1046.6 490.727 1047.87 488.727 1050.4C486.727 1052.87 485.727 1056.2 485.727 1060.4V1079.1H496.727C497.727 1079.1 498.227 1079.6 498.227 1080.6V1085.5C498.227 1086.5 497.727 1087 496.727 1087H469.227C468.227 1087 467.727 1086.5 467.727 1085.5V1080.6C467.727 1079.6 468.227 1079.1 469.227 1079.1H474.527V1045.7H469.127C468.127 1045.7 467.627 1045.2 467.627 1044.2V1039C467.627 1038 468.127 1037.5 469.127 1037.5H482.327C483.26 1037.5 483.827 1038 484.027 1039L485.127 1046.1ZM530.844 1079.1H537.144C538.144 1079.1 538.644 1079.6 538.644 1080.6V1085.5C538.644 1086.5 538.144 1087 537.144 1087H513.344C512.344 1087 511.844 1086.5 511.844 1085.5V1080.6C511.844 1079.6 512.344 1079.1 513.344 1079.1C513.344 1079.1 515.444 1079.1 519.644 1079.1V1045.7H514.244C513.244 1045.7 512.744 1045.2 512.744 1044.2V1039C512.744 1038 513.244 1037.5 514.244 1037.5H529.344C530.344 1037.5 530.844 1038 530.844 1039V1079.1ZM518.744 1028.6C517.477 1027.27 516.844 1025.57 516.844 1023.5C516.844 1021.43 517.477 1019.73 518.744 1018.4C520.077 1017 521.811 1016.3 523.944 1016.3C526.144 1016.3 527.877 1017 529.144 1018.4C530.477 1019.73 531.144 1021.43 531.144 1023.5C531.144 1025.57 530.477 1027.27 529.144 1028.6C527.811 1029.93 526.044 1030.6 523.844 1030.6C521.711 1030.6 520.011 1029.93 518.744 1028.6ZM542.139 1044.3V1039C542.139 1038 542.639 1037.5 543.639 1037.5H557.239C558.105 1037.5 558.639 1038 558.839 1039L559.739 1044.8C563.472 1039.2 568.805 1036.4 575.739 1036.4C586.072 1036.4 591.239 1042.07 591.239 1053.4V1079.1H597.039C598.039 1079.1 598.539 1079.6 598.539 1080.6V1085.5C598.539 1086.5 598.039 1087 597.039 1087H575.239C574.239 1087 573.739 1086.5 573.739 1085.5V1080.6C573.739 1079.6 574.239 1079.1 575.239 1079.1H580.039V1058.4C580.039 1054.2 579.505 1051.13 578.439 1049.2C577.372 1047.27 575.172 1046.3 571.839 1046.3C568.505 1046.3 565.739 1047.3 563.539 1049.3C561.339 1051.3 560.239 1053.57 560.239 1056.1V1079.1H566.439C567.439 1079.1 567.939 1079.6 567.939 1080.6V1085.5C567.939 1086.5 567.439 1087 566.439 1087H543.739C542.739 1087 542.239 1086.5 542.239 1085.5V1080.6C542.239 1079.6 542.739 1079.1 543.739 1079.1H549.039V1045.7H543.639C542.639 1045.7 542.139 1045.23 542.139 1044.3ZM620.59 1013.9V1053.8H625.69L641.19 1038.6C641.924 1037.87 642.79 1037.5 643.79 1037.5H651.59C652.59 1037.5 653.09 1038 653.09 1039V1044.2C653.09 1045.2 652.59 1045.7 651.59 1045.7H645.49L634.49 1056.4L648.19 1079.1H654.09C655.09 1079.1 655.59 1079.6 655.59 1080.6V1085.5C655.59 1086.5 655.09 1087 654.09 1087H641.19C640.257 1087 639.49 1086.57 638.89 1085.7L623.89 1061.5H620.59V1079.1H625.89C626.89 1079.1 627.39 1079.6 627.39 1080.6V1085.5C627.39 1086.5 626.89 1087 625.89 1087H604.09C603.09 1087 602.59 1086.5 602.59 1085.5V1080.6C602.59 1079.6 603.09 1079.1 604.09 1079.1H609.39V1020.5H603.99C602.99 1020.5 602.49 1020 602.49 1019V1013.9C602.49 1012.9 602.99 1012.4 603.99 1012.4H619.09C620.09 1012.4 620.59 1012.9 620.59 1013.9Z" fill="black"/>
<path d="M141.715 71.2C173.115 71.2 190.115 86.1 192.715 115.9C192.915 118.1 192.615 119.6 191.815 120.4C191.215 121.2 189.815 121.6 187.615 121.6H171.115C168.715 121.6 167.115 121.2 166.315 120.4C165.515 119.6 164.915 118.1 164.515 115.9C162.515 102.9 154.215 96.4 139.615 96.4C110.415 96.4 95.3152 118.5 94.3152 162.7C104.915 147.9 120.015 140.5 139.615 140.5C159.215 140.5 174.015 146 184.015 157C194.215 167.8 199.315 183 199.315 202.6C199.315 222.2 193.215 238.6 181.015 251.8C169.015 265 152.615 271.6 131.815 271.6C84.4152 271.6 60.7152 240.9 60.7152 179.5C60.7152 143.1 67.7152 116 81.7152 98.2C95.9152 80.2 115.915 71.2 141.715 71.2ZM130.915 166.6C122.315 166.6 114.715 168.6 108.115 172.6C99.3152 178 94.9152 187.4 94.9152 200.8C94.9152 214.2 97.6152 225.3 103.015 234.1C108.615 242.7 117.915 247 130.915 247C154.515 247 166.315 233.6 166.315 206.8C166.315 180 154.515 166.6 130.915 166.6Z" fill="black"/>
<path d="M262.605 655.873C271.353 664.601 281.739 671.525 293.17 676.248C304.602 680.972 316.854 683.403 329.228 683.403C341.602 683.403 353.854 680.972 365.285 676.248C376.717 671.525 387.103 664.601 395.85 655.873L414.005 637.768L432.159 655.873C449.828 673.495 473.793 683.394 498.781 683.394C523.77 683.394 547.735 673.495 565.404 655.873C583.073 638.252 593 614.352 593 589.431C593 564.511 583.073 540.611 565.404 522.989L547.25 504.884L428.128 386.085C420.322 378.3 407.688 378.3 399.882 386.085L280.759 504.884L262.605 522.989C253.854 531.713 246.911 542.071 242.175 553.471C237.438 564.872 235 577.091 235 589.431C235 601.771 237.438 613.991 242.175 625.391C246.911 636.791 253.854 647.149 262.605 655.873Z" fill="#231F20"/>
<path d="M410.479 686.897L350.449 746.454C347.28 749.598 349.507 755.003 353.971 755.003H474.03C478.494 755.003 480.72 749.598 477.551 746.454L417.522 686.897C415.572 684.963 412.428 684.963 410.479 686.897Z" fill="#231F20"/>
<mask id="mask0_1023_4900" style="mask-type:alpha" maskUnits="userSpaceOnUse" x="235" y="379" width="179" height="376">
<rect x="235" y="379" width="179" height="376" fill="#D9D9D9"/>
</mask>
<g mask="url(#mask0_1023_4900)">
<path d="M410.479 686.897L350.449 746.454C347.28 749.598 349.507 755.003 353.971 755.003H474.03C478.494 755.003 480.72 749.598 477.551 746.454L417.522 686.897C415.572 684.963 412.428 684.963 410.479 686.897Z" fill="#393335"/>
<path d="M262.605 655.873C271.353 664.601 281.739 671.525 293.17 676.248C304.602 680.972 316.854 683.403 329.228 683.403C341.602 683.403 353.854 680.972 365.285 676.248C376.717 671.525 387.103 664.601 395.85 655.873L414.005 637.768L432.159 655.873C449.828 673.495 473.793 683.394 498.781 683.394C523.77 683.394 547.735 673.495 565.404 655.873C583.073 638.252 593 614.352 593 589.431C593 564.511 583.073 540.611 565.404 522.989L547.25 504.884L428.128 386.085C420.322 378.3 407.688 378.3 399.882 386.085L280.759 504.884L262.605 522.989C253.854 531.713 246.911 542.071 242.175 553.471C237.438 564.872 235 577.091 235 589.431C235 601.771 237.438 613.991 242.175 625.391C246.911 636.791 253.854 647.149 262.605 655.873Z" fill="#393335"/>
</g>
<path d="M90.711 402.294C93.1544 404.732 96.0556 406.666 99.2487 407.986C102.442 409.305 105.864 409.984 109.321 409.984C112.777 409.984 116.199 409.305 119.393 407.986C122.586 406.666 125.487 404.732 127.93 402.294L133.001 397.237L138.072 402.294C143.008 407.217 149.702 409.982 156.682 409.982C163.662 409.982 170.356 407.217 175.292 402.294C180.227 397.372 183 390.696 183 383.735C183 376.774 180.227 370.098 175.292 365.176L170.221 360.119L136.532 326.521C134.581 324.575 131.422 324.575 129.471 326.521L95.782 360.119L90.711 365.176C88.2664 367.613 86.3272 370.506 85.0041 373.69C83.681 376.875 83 380.288 83 383.735C83 387.182 83.681 390.595 85.0041 393.78C86.3272 396.964 88.2664 399.858 90.711 402.294Z" fill="#231F20"/>
<path d="M131.592 411.382L116.289 426.565C115.021 427.822 115.912 429.984 117.697 429.984H148.304C150.089 429.984 150.98 427.822 149.712 426.565L134.409 411.382C133.629 410.608 132.372 410.608 131.592 411.382Z" fill="#231F20"/>
<mask id="mask1_1023_4900" style="mask-type:alpha" maskUnits="userSpaceOnUse" x="83" y="324" width="50" height="106">
<rect x="83" y="324.955" width="50" height="105.028" fill="#D9D9D9"/>
</mask>
<g mask="url(#mask1_1023_4900)">
<path d="M131.592 411.382L116.289 426.565C115.021 427.822 115.912 429.984 117.697 429.984H148.304C150.089 429.984 150.98 427.822 149.712 426.565L134.409 411.382C133.629 410.608 132.372 410.608 131.592 411.382Z" fill="#393335"/>
<path d="M90.711 402.294C93.1544 404.732 96.0556 406.666 99.2487 407.986C102.442 409.305 105.864 409.984 109.321 409.984C112.777 409.984 116.199 409.305 119.393 407.986C122.586 406.666 125.487 404.732 127.93 402.294L133.001 397.237L138.072 402.294C143.008 407.217 149.702 409.982 156.682 409.982C163.662 409.982 170.356 407.217 175.292 402.294C180.227 397.372 183 390.696 183 383.735C183 376.774 180.227 370.098 175.292 365.176L170.221 360.119L136.532 326.521C134.581 324.575 131.422 324.575 129.471 326.521L95.782 360.119L90.711 365.176C88.2664 367.613 86.3272 370.506 85.0041 373.69C83.681 376.875 83 380.288 83 383.735C83 387.182 83.681 390.595 85.0041 393.78C86.3272 396.964 88.2664 399.858 90.711 402.294Z" fill="#393335"/>
</g>
</svg>
